Badges/Community/Package/link-linkedin.svg

<svg width="102" height="32" viewBox="0 0 102 32" fill="none" xmlns="http://www.w3.org/2000/svg">
<g filter="url(#filter0_i_24_193)">
<rect width="102" height="32" rx="4" fill="#186FC6"/>
<path d="M25.0312 7.71289C25.3438 7.76497 25.5977 7.89193 25.793 8.09375C25.9948 8.28906 26.1055 8.54297 26.125 8.85547V22.918C26.0859 23.1979 25.9655 23.4355 25.7637 23.6309C25.5684 23.8327 25.3307 23.9434 25.0508 23.9629H10.9492C10.6432 23.9303 10.3926 23.8099 10.1973 23.6016C10.0085 23.3932 9.90104 23.1328 9.875 22.8203V8.88477C9.88802 8.57227 10.002 8.30859 10.2168 8.09375C10.4316 7.8724 10.6921 7.74544 10.998 7.71289H25.0312ZM12.2773 21.5898H14.709V13.8164H12.2773V21.5898ZM21.8086 13.7188C21.2292 13.5755 20.6888 13.5592 20.1875 13.6699C19.6406 13.7936 19.1849 14.0671 18.8203 14.4902C18.7943 14.5163 18.7585 14.5618 18.7129 14.627C18.6413 14.7376 18.5794 14.8125 18.5273 14.8516V13.8164H16.1934V21.5508L16.2422 21.5898H18.625V17.4492C18.6576 16.8633 18.7878 16.4336 19.0156 16.1602C19.276 15.8477 19.6862 15.7142 20.2461 15.7598C20.5586 15.7858 20.7995 15.9062 20.9688 16.1211C21.1055 16.2904 21.2031 16.5345 21.2617 16.8535C21.2943 17.0358 21.3171 17.3125 21.3301 17.6836C21.3431 18.1328 21.3431 18.8066 21.3301 19.7051C21.3171 20.5449 21.3171 21.1732 21.3301 21.5898H23.7227V16.5996C23.6706 15.8379 23.5176 15.2324 23.2637 14.7832C22.9447 14.2298 22.4596 13.875 21.8086 13.7188ZM13.2344 9.96875C12.9154 10.0143 12.6582 10.1478 12.4629 10.3691C12.2806 10.571 12.1667 10.8151 12.1211 11.1016C12.082 11.388 12.1146 11.6647 12.2188 11.9316C12.3294 12.2051 12.5052 12.4167 12.7461 12.5664C13.0065 12.7292 13.319 12.791 13.6836 12.752C14.0156 12.7129 14.2891 12.5827 14.5039 12.3613C14.6927 12.1595 14.8099 11.9121 14.8555 11.6191C14.901 11.3197 14.8717 11.0397 14.7676 10.7793C14.6504 10.4928 14.4681 10.278 14.2207 10.1348C13.9473 9.97201 13.6185 9.91667 13.2344 9.96875Z" fill="white"/>
<path d="M37.984 20H32.814V12.3H34.31V18.548H37.984V20ZM40.419 13.4H38.945V11.926H40.419V13.4ZM40.386 20H38.978V14.236H40.386V20ZM43.2434 20H41.8354V14.236H43.2434V15.05L43.4194 15.116C43.7054 14.555 44.2224 14.126 45.0804 14.126C46.3564 14.126 47.0494 14.995 47.0494 16.293V20H45.6414V16.667C45.6414 15.798 45.2014 15.424 44.5084 15.424C43.9364 15.424 43.4744 15.743 43.2434 16.194V20ZM53.4906 14.236L51.4776 16.92V17.052L53.4906 20H51.8296L50.1356 17.569H49.8606V20H48.4526V12.19H49.8606V16.392H50.1356L51.7306 14.236H53.4906ZM56.635 20.11C54.864 20.11 53.709 18.911 53.709 17.129C53.709 15.347 54.864 14.126 56.514 14.126C58.296 14.126 59.187 15.347 59.187 17.052V17.547H55.128C55.249 18.449 55.821 18.834 56.635 18.834C57.229 18.834 57.68 18.647 58.131 18.273L58.978 19.285C58.362 19.857 57.482 20.11 56.635 20.11ZM56.514 15.314C55.81 15.314 55.348 15.677 55.172 16.403H57.79C57.702 15.71 57.24 15.314 56.514 15.314ZM62.3915 20.11C61.0495 20.11 59.9825 19.087 59.9825 17.118C59.9825 15.182 61.1485 14.126 62.8095 14.126C63.3265 14.126 63.8545 14.258 64.1955 14.445V12.19H65.6035V20H64.1955V19.186L64.0195 19.12C63.7005 19.813 63.1175 20.11 62.3915 20.11ZM62.7985 18.812C63.3485 18.812 63.9205 18.57 64.1955 18.042V15.71C63.8435 15.501 63.3925 15.424 62.9525 15.424C62.0945 15.424 61.4125 15.952 61.4125 17.118C61.4125 18.174 61.8855 18.812 62.7985 18.812ZM68.5561 20H67.0601V12.3H68.5561V20ZM71.5061 20H70.0981V14.236H71.5061V15.05L71.6821 15.116C71.9681 14.555 72.4851 14.126 73.3431 14.126C74.6191 14.126 75.3121 14.995 75.3121 16.293V20H73.9041V16.667C73.9041 15.798 73.4641 15.424 72.7711 15.424C72.1991 15.424 71.7371 15.743 71.5061 16.194V20Z" fill="white"/>
<path d="M85.625 11.1875C85.7812 11.1875 85.9141 11.2422 86.0234 11.3516C86.1328 11.4609 86.1875 11.5938 86.1875 11.75C86.1875 11.9062 86.1328 12.0391 86.0234 12.1484C85.9141 12.2578 85.7812 12.3125 85.625 12.3125H82.0625V20.1875H89.9375V16.625C89.9375 16.4688 89.9922 16.3359 90.1016 16.2266C90.2109 16.1172 90.3438 16.0625 90.5 16.0625C90.6562 16.0625 90.7891 16.1172 90.8984 16.2266C91.0078 16.3359 91.0625 16.4688 91.0625 16.625V20.375C91.0625 20.543 91.0195 20.6992 90.9336 20.8438C90.8516 20.9883 90.7383 21.1016 90.5938 21.1836C90.4492 21.2695 90.293 21.3125 90.125 21.3125H81.875C81.707 21.3125 81.5508 21.2695 81.4062 21.1836C81.2617 21.1016 81.1465 20.9883 81.0605 20.8438C80.9785 20.6992 80.9375 20.543 80.9375 20.375V12.125C80.9375 11.957 80.9785 11.8008 81.0605 11.6562C81.1465 11.5117 81.2617 11.3984 81.4062 11.3164C81.5508 11.2305 81.707 11.1875 81.875 11.1875H85.625ZM90.5 11.1875C90.6562 11.1875 90.7891 11.2422 90.8984 11.3516C91.0078 11.4609 91.0625 11.5938 91.0625 11.75V14C91.0625 14.1562 91.0078 14.2891 90.8984 14.3984C90.7891 14.5078 90.6562 14.5625 90.5 14.5625C90.3438 14.5625 90.2109 14.5078 90.1016 14.3984C89.9922 14.2891 89.9375 14.1562 89.9375 14V13.1094L86.3984 16.6484C86.2891 16.7578 86.1562 16.8125 86 16.8125C85.8438 16.8125 85.7109 16.7578 85.6016 16.6484C85.4922 16.5391 85.4375 16.4062 85.4375 16.25C85.4375 16.0938 85.4922 15.9609 85.6016 15.8516L89.1406 12.3125H88.25C88.0938 12.3125 87.9609 12.2578 87.8516 12.1484C87.7422 12.0391 87.6875 11.9062 87.6875 11.75C87.6875 11.5938 87.7422 11.4609 87.8516 11.3516C87.9609 11.2422 88.0938 11.1875 88.25 11.1875H90.5Z" fill="white"/>
</g>
<defs>
<filter id="filter0_i_24_193" x="0" y="-2" width="102" height="34" filterUnits="userSpaceOnUse" color-interpolation-filters="sRGB">
<feFlood flood-opacity="0" result="BackgroundImageFix"/>
<feBlend mode="normal" in="SourceGraphic" in2="BackgroundImageFix" result="shape"/>
<feColorMatrix in="SourceAlpha" type="matrix" values="0 0 0 0 0 0 0 0 0 0 0 0 0 0 0 0 0 0 127 0" result="hardAlpha"/>
<feOffset dy="-2"/>
<feGaussianBlur stdDeviation="1.65"/>
<feComposite in2="hardAlpha" operator="arithmetic" k2="-1" k3="1"/>
<feColorMatrix type="matrix" values="0 0 0 0 1 0 0 0 0 1 0 0 0 0 1 0 0 0 0.11 0"/>
<feBlend mode="normal" in2="shape" result="effect1_innerShadow_24_193"/>
</filter>
</defs>
</svg>

<svg xmlns="http://www.w3.org/2000/svg" width="102" height="32" fill="none">
  <g filter="url(#a)">
    <rect width="102" height="32" fill="#186fc6" rx="4"/>
    <path fill="#fff" d="M25.031 7.713q.47.078.762.38.303.294.332.762v14.063q-.06.42-.361.713a1.06 1.06 0 0 1-.713.332H10.949a1.16 1.16 0 0 1-.752-.361 1.3 1.3 0 0 1-.322-.782V8.885q.02-.469.342-.791a1.24 1.24 0 0 1 .781-.381zM12.277 21.59h2.432v-7.774h-2.432zm9.532-7.871q-.87-.215-1.622-.05a2.48 2.48 0 0 0-1.474.958.9.9 0 0 1-.186.225v-1.036h-2.334v7.735l.05.039h2.382v-4.14q.05-.88.39-1.29.391-.468 1.231-.4.469.039.723.361.204.255.293.733.048.273.068.83.02.674 0 2.021-.02 1.26 0 1.885h2.393V16.6q-.078-1.143-.46-1.817-.477-.83-1.454-1.064m-8.575-3.75q-.479.068-.771.4a1.4 1.4 0 0 0-.342.733q-.058.43.098.83a1.3 1.3 0 0 0 .527.634q.39.245.938.186.498-.06.82-.39.283-.304.351-.743.069-.45-.087-.84a1.28 1.28 0 0 0-.547-.644q-.411-.244-.987-.166M37.984 20h-5.17v-7.7h1.496v6.248h3.674zm2.435-6.6h-1.474v-1.474h1.474zm-.033 6.6h-1.408v-5.764h1.408zm2.857 0h-1.408v-5.764h1.408v.814l.176.066c.286-.561.803-.99 1.661-.99 1.276 0 1.97.869 1.97 2.167V20h-1.41v-3.333c0-.869-.44-1.243-1.133-1.243-.572 0-1.034.319-1.265.77zm10.248-5.764-2.013 2.684v.132L53.49 20h-1.66l-1.694-2.431h-.275V20h-1.408v-7.81h1.408v4.202h.275l1.595-2.156zm3.144 5.874c-1.771 0-2.926-1.199-2.926-2.981s1.155-3.003 2.805-3.003c1.782 0 2.673 1.221 2.673 2.926v.495h-4.059c.121.902.693 1.287 1.507 1.287.594 0 1.045-.187 1.496-.561l.847 1.012c-.616.572-1.496.825-2.343.825m-.121-4.796c-.704 0-1.166.363-1.342 1.089h2.618c-.088-.693-.55-1.089-1.276-1.089m5.877 4.796c-1.341 0-2.408-1.023-2.408-2.992 0-1.936 1.166-2.992 2.827-2.992.517 0 1.044.132 1.385.319V12.19h1.409V20h-1.409v-.814l-.175-.066c-.32.693-.902.99-1.628.99m.407-1.298c.55 0 1.122-.242 1.397-.77V15.71c-.351-.209-.802-.286-1.242-.286-.859 0-1.54.528-1.54 1.694 0 1.056.473 1.694 1.386 1.694M68.557 20H67.06v-7.7h1.496zm2.95 0h-1.408v-5.764h1.408v.814l.176.066c.286-.561.803-.99 1.661-.99 1.276 0 1.97.869 1.97 2.167V20h-1.409v-3.333c0-.869-.44-1.243-1.133-1.243-.572 0-1.034.319-1.265.77zm14.118-8.812q.235 0 .398.164.165.164.165.398t-.165.398a.54.54 0 0 1-.398.165h-3.562v7.874h7.874v-3.562q0-.235.165-.398a.54.54 0 0 1 .398-.165q.235 0 .398.165.165.164.165.398v3.75a.9.9 0 0 1-.13.469.9.9 0 0 1-.34.34.9.9 0 0 1-.468.128h-8.25a.9.9 0 0 1-.469-.128.93.93 0 0 1-.346-.34.93.93 0 0 1-.123-.469v-8.25q0-.252.124-.469a.93.93 0 0 1 .345-.34.9.9 0 0 1 .469-.129zm4.875 0q.235 0 .398.164.165.164.165.398V14q0 .235-.165.398a.54.54 0 0 1-.398.165.54.54 0 0 1-.398-.165.54.54 0 0 1-.165-.398v-.89l-3.539 3.538a.54.54 0 0 1-.398.165.54.54 0 0 1-.398-.165.54.54 0 0 1-.165-.398q0-.235.165-.398l3.539-3.54h-.891a.54.54 0 0 1-.398-.164.54.54 0 0 1-.165-.398q0-.235.165-.398a.54.54 0 0 1 .398-.165z"/>
  </g>
  <defs>
    <filter id="a" width="102" height="34" x="0" y="-2" color-interpolation-filters="sRGB" filterUnits="userSpaceOnUse">
      <feFlood flood-opacity="0" result="BackgroundImageFix"/>
      <feBlend in="SourceGraphic" in2="BackgroundImageFix" result="shape"/>
      <feColorMatrix in="SourceAlpha" result="hardAlpha" values="0 0 0 0 0 0 0 0 0 0 0 0 0 0 0 0 0 0 127 0"/>
      <feOffset dy="-2"/>
      <feGaussianBlur stdDeviation="1.65"/>
      <feComposite in2="hardAlpha" k2="-1" k3="1" operator="arithmetic"/>
      <feColorMatrix values="0 0 0 0 1 0 0 0 0 1 0 0 0 0 1 0 0 0 0.11 0"/>
      <feBlend in2="shape" result="effect1_innerShadow_24_193"/>
    </filter>
  </defs>
</svg>
